X: 19
T:Master Crowley's
M:C|
L:1/8
C:Traditional, arr. Roger Landes
R:Reel
K:DDor
A,D {F}DD A,DFD|CCB,C G,CEC|A,D D/2D/2D CFAF|EGcG ED D/2D/2D|A,D {F}DD A
,DFD|CCB,C G,CEC|A,D D/2D/2D CFAF|EGcG ED D/2D/2D:|{b}aa^ga efdf|ec c/2c
/2c Gcec|{b}aa^ga efdc|dAAG AD D/2D/2D|{b}aa^ga efdf|ec c/2c/2c Gcec|DEF
G AGAc|EGcG ED D/2D/2D:||
